svgs/sharp-light/list-ul.svg

<svg xmlns="http://www.w3.org/2000/svg" viewBox="0 0 512 512"><!--! Font Awesome Pro 6.6.0 by @fontawesome - https://fontawesome.com License - https://fontawesome.com/license (Commercial License) Copyright 2024 Fonticons, Inc. --><path d="M64 64a32 32 0 1 0 0 64 32 32 0 1 0 0-64zM176 80l-16 0 0 32 16 0 320 0 16 0 0-32-16 0L176 80zm0 160l-16 0 0 32 16 0 320 0 16 0 0-32-16 0-320 0zm0 160l-16 0 0 32 16 0 320 0 16 0 0-32-16 0-320 0zM96 256a32 32 0 1 0 -64 0 32 32 0 1 0 64 0zM64 384a32 32 0 1 0 0 64 32 32 0 1 0 0-64z"/></svg>

<svg xmlns="http://www.w3.org/2000/svg" viewBox="0 0 512 512"><!--! Font Awesome Pro 6.4.0 by @fontawesome - https://fontawesome.com License - https://fontawesome.com/license (Commercial License) Copyright 2023 Fonticons, Inc. --><path d="M64 64a32 32 0 1 0 0 64 32 32 0 1 0 0-64zM176 80H160v32h16H496h16V80H496 176zm0 160H160v32h16H496h16V240H496 176zm0 160H160v32h16H496h16V400H496 176zM96 256a32 32 0 1 0 -64 0 32 32 0 1 0 64 0zM64 384a32 32 0 1 0 0 64 32 32 0 1 0 0-64z"/></svg>
